resources/svg/solid/face.svg

<svg xmlns="http://www.w3.org/2000/svg" fill="currentColor" stroke="none" viewBox="0 0 24 24"><path d="M12 2C6.486 2 2 6.486 2 12s4.486 10 10 10 10-4.486 10-10S17.514 2 12 2zm0 18c-4.411 0-8-3.589-8-8 0-1.168.258-2.275.709-3.276.154.09.308.182.456.276.396.25.791.5 1.286.688.494.187 1.088.312 1.879.312.792 0 1.386-.125 1.881-.313s.891-.437 1.287-.687.792-.5 1.287-.688c.494-.187 1.088-.312 1.88-.312s1.386.125 1.88.313c.495.187.891.437 1.287.687s.792.5 1.287.688c.178.067.374.122.581.171.191.682.3 1.398.3 2.141 0 4.411-3.589 8-8 8z"/><circle cx="8.5" cy="12.5" r="1.5"/><circle cx="15.5" cy="12.5" r="1.5"/></svg>

<svg xmlns="http://www.w3.org/2000/svg" fill="currentColor" stroke="none" viewBox="0 0 24 24"><path d="M12,2C6.486,2,2,6.486,2,12s4.486,10,10,10s10-4.486,10-10S17.514,2,12,2z M12,20c-4.411,0-8-3.589-8-8 c0-1.168,0.258-2.275,0.709-3.276C4.863,8.814,5.017,8.906,5.165,9c0.396,0.25,0.791,0.5,1.286,0.688C6.945,9.875,7.539,10,8.33,10 c0.792,0,1.386-0.125,1.881-0.313S11.102,9.25,11.498,9s0.792-0.5,1.287-0.688C13.279,8.125,13.873,8,14.665,8 s1.386,0.125,1.88,0.313C17.04,8.5,17.436,8.75,17.832,9s0.792,0.5,1.287,0.688c0.178,0.067,0.374,0.122,0.581,0.171 C19.891,10.541,20,11.257,20,12C20,16.411,16.411,20,12,20z"/><circle cx="8.5" cy="12.5" r="1.5"/><circle cx="15.5" cy="12.5" r="1.5"/></svg>
